X: 1
T: Cliodhna's
M: 4/4
L: 1/8
R: reel
K: Emin
D |: E2 GE BE GE | AGFE DEFD | E2 GE BE GE |1 AGFD E2 ED :|2 DEFG ABcA||
|: G2 (3GAB d2 Bd | cBAc BAGF | G2 (3GAB d2 Bd |egfe dcBA | G2 (3GAB d2 Bd |
cBAc BAGF |1 GABc dBGB | AGFE DEFA :|2 EFGA BcBA | GFED E2 ED||
